X: 1
T: Bush's Farewell
M: 6/8
L: 1/8
R: jig
K: Gmaj
|: d>ef gfe | ded BAG | FGA DEF | GEE E2D |
G2G AGA | Bdd dg>e | dBG AGE | DGG G2z :|
|: E2>e efg | fdd def | gfe efg | fBB B3 |
efg f2B | efg f2B | cBA FGA | GEE E3 :|
